ui/static/images/common/sm-icon.svg

<svg width="29" height="17" viewBox="0 0 29 17" fill="none" xmlns="http://www.w3.org/2000/svg">
<path d="M7.36368 16.22C5.97035 16.22 4.77501 16.0147 3.77768 15.604C2.78035 15.1933 2.02501 14.658 1.51168 13.998C1.01301 13.3233 0.749013 12.59 0.719679 11.798C0.719679 11.6807 0.763679 11.578 0.851679 11.49C0.954346 11.3873 1.07168 11.336 1.20368 11.336H3.97568C4.15168 11.336 4.29101 11.3727 4.39368 11.446C4.51101 11.5047 4.62835 11.6 4.74568 11.732C4.93635 12.1133 5.24435 12.4287 5.66968 12.678C6.09501 12.9273 6.65968 13.052 7.36368 13.052C8.19968 13.052 8.83768 12.92 9.27768 12.656C9.71768 12.392 9.93768 12.0327 9.93768 11.578C9.93768 11.2553 9.82035 10.9913 9.58568 10.786C9.36568 10.5807 9.01368 10.3973 8.52968 10.236C8.04568 10.0747 7.32701 9.89133 6.37368 9.686C4.61368 9.31933 3.29368 8.784 2.41368 8.08C1.54835 7.36133 1.11568 6.342 1.11568 5.022C1.11568 4.12733 1.36501 3.328 1.86368 2.624C2.36235 1.92 3.07368 1.37 3.99768 0.973999C4.92168 0.577999 5.99968 0.379999 7.23168 0.379999C8.50768 0.379999 9.61501 0.599999 10.5537 1.04C11.4923 1.48 12.2037 2.03733 12.6877 2.712C13.1863 3.372 13.4503 4.02467 13.4797 4.67C13.4797 4.802 13.4357 4.912 13.3477 5C13.2597 5.088 13.1497 5.132 13.0177 5.132H10.1137C9.93768 5.132 9.79101 5.10267 9.67368 5.044C9.57101 4.98533 9.47568 4.89 9.38768 4.758C9.29968 4.42067 9.05768 4.13467 8.66168 3.9C8.28035 3.66533 7.80368 3.548 7.23168 3.548C6.57168 3.548 6.06568 3.66533 5.71368 3.9C5.36168 4.13467 5.18568 4.47933 5.18568 4.934C5.18568 5.242 5.28101 5.49867 5.47168 5.704C5.67701 5.90933 5.99968 6.1 6.43968 6.276C6.89435 6.43733 7.53968 6.606 8.37568 6.782C9.73968 7.03133 10.825 7.34667 11.6317 7.728C12.453 8.09467 13.0543 8.57867 13.4357 9.18C13.817 9.76667 14.0077 10.5073 14.0077 11.402C14.0077 12.3847 13.7217 13.2427 13.1497 13.976C12.5923 14.6947 11.8077 15.252 10.7957 15.648C9.79835 16.0293 8.65435 16.22 7.36368 16.22ZM13.7896 16C13.6429 16 13.5109 15.9487 13.3936 15.846C13.2909 15.7287 13.2396 15.5967 13.2396 15.45V1.15C13.2396 0.988666 13.2909 0.856666 13.3936 0.754C13.5109 0.651332 13.6429 0.599999 13.7896 0.599999H16.1656C16.5176 0.599999 16.7742 0.761332 16.9356 1.084L20.8076 8.014L24.6796 1.084C24.8409 0.761332 25.0976 0.599999 25.4496 0.599999H27.8036C27.9649 0.599999 28.0969 0.651332 28.1996 0.754C28.3169 0.856666 28.3756 0.988666 28.3756 1.15V15.45C28.3756 15.6113 28.3169 15.7433 28.1996 15.846C28.0969 15.9487 27.9649 16 27.8036 16H25.1856C25.0242 16 24.8849 15.9487 24.7676 15.846C24.6649 15.7433 24.6136 15.6113 24.6136 15.45V7.2L22.1496 11.798C21.9589 12.1353 21.7022 12.304 21.3796 12.304H20.2356C20.0449 12.304 19.8909 12.26 19.7736 12.172C19.6562 12.084 19.5536 11.9593 19.4656 11.798L16.9796 7.2V15.45C16.9796 15.5967 16.9282 15.7287 16.8256 15.846C16.7229 15.9487 16.5909 16 16.4296 16H13.7896Z" fill="#647387"/>
</svg>

<svg width="29" height="17" fill="none" xmlns="http://www.w3.org/2000/svg"><path d="M7.364 16.22c-1.394 0-2.589-.205-3.586-.616-.998-.41-1.753-.946-2.266-1.606-.499-.675-.763-1.408-.792-2.2 0-.117.044-.22.132-.308a.484.484 0 01.352-.154h2.772a.71.71 0 01.418.11c.117.059.234.154.352.286.19.381.498.697.924.946.425.25.99.374 1.694.374.836 0 1.474-.132 1.914-.396.44-.264.66-.623.66-1.078 0-.323-.118-.587-.352-.792-.22-.205-.572-.389-1.056-.55-.484-.161-1.203-.345-2.156-.55-1.76-.367-3.08-.902-3.96-1.606-.866-.719-1.298-1.738-1.298-3.058 0-.895.249-1.694.748-2.398.498-.704 1.21-1.254 2.134-1.65C4.922.578 6 .38 7.232.38c1.276 0 2.383.22 3.322.66.938.44 1.65.997 2.134 1.672.498.66.762 1.313.792 1.958a.448.448 0 01-.462.462h-2.904a.98.98 0 01-.44-.088.883.883 0 01-.286-.286c-.088-.337-.33-.623-.726-.858-.382-.235-.858-.352-1.43-.352-.66 0-1.166.117-1.518.352-.352.235-.528.58-.528 1.034 0 .308.095.565.286.77.205.205.528.396.968.572.454.161 1.1.33 1.936.506 1.364.25 2.449.565 3.256.946.821.367 1.422.85 1.804 1.452.381.587.572 1.327.572 2.222 0 .983-.286 1.84-.858 2.574-.558.719-1.342 1.276-2.354 1.672-.998.381-2.142.572-3.432.572zM13.79 16a.586.586 0 01-.396-.154.586.586 0 01-.154-.396V1.15c0-.161.05-.293.154-.396A.586.586 0 0113.79.6h2.376c.352 0 .608.161.77.484l3.872 6.93 3.872-6.93c.16-.323.418-.484.77-.484h2.354c.16 0 .293.051.396.154a.502.502 0 01.176.396v14.3a.502.502 0 01-.176.396.536.536 0 01-.396.154h-2.618a.614.614 0 01-.418-.154.536.536 0 01-.154-.396V7.2l-2.464 4.598c-.191.337-.448.506-.77.506h-1.144a.75.75 0 01-.462-.132 1.138 1.138 0 01-.308-.374L16.98 7.2v8.25a.586.586 0 01-.154.396.536.536 0 01-.396.154h-2.64z" fill="#647387"/></svg>
